assets/si/si-ubereats.svg

<svg xmlns="http://www.w3.org/2000/svg" width="100%" height="100%" viewBox="-3.36 -3.36 30.72 30.72"><path d="M0 2.75v5.09c0 1.92 1.34 3.19 3.08 3.19.85 0 1.61-.33 2.15-.9v.76h1.21V2.75H5.22v5.02c0 1.29-.87 2.16-2 2.16-1.14 0-2-.85-2-2.16V2.75H0m7.35 0v8.14H8.5v-.75a2.96 2.96 0 002.13.89 3.09 3.09 0 003.11-3.1 3.09 3.09 0 00-3.11-3.1c-.83 0-1.57.34-2.13.88V2.75H7.35m9.91 2.09c-1.76 0-3.05 1.41-3.05 3.08 0 1.77 1.37 3.08 3.15 3.08 1.08 0 1.97-.46 2.56-1.25l-.85-.63c-.44.59-1.02.88-1.71.88-1 0-1.8-.73-1.96-1.69h4.82v-.39c0-1.76-1.25-3.08-2.96-3.08m6.19.07c-.65 0-1.12.3-1.41.78v-.73h-1.17v5.93h1.18V7.5c0-.9.56-1.5 1.32-1.5h.49V4.91h-.41m-6.22.95c.88 0 1.61.61 1.81 1.52h-3.62c.21-.91.94-1.52 1.81-1.52m-6.68.02c1.11 0 2.03.9 2.03 2.05 0 1.14-.92 2.07-2.03 2.07A2.04 2.04 0 018.5 7.93c0-1.15.92-2.05 2.05-2.05M0 12.96v8.14h5.72v-1.39H1.55v-2.02h4.06v-1.35H1.55v-1.99h4.17v-1.39H0m14.56.42v1.71H13.4v1.36h1.16v3.2c0 .81.57 1.45 1.6 1.45h1.64v-1.36h-1.14c-.35 0-.57-.16-.57-.48v-2.81h1.71v-1.36h-1.71v-1.71h-1.53m-5.24 1.56c-1.79 0-3.2 1.4-3.2 3.16 0 1.75 1.41 3.15 3.2 3.15.72 0 1.39-.25 1.92-.69v.54h1.52v-6.01h-1.52v.54a2.96 2.96 0 00-1.92-.69m11.72 0c-1.59 0-2.7.65-2.7 1.92 0 .87.61 1.44 1.93 1.72l1.45.34c.57.11.72.26.72.5 0 .37-.44.61-1.13.61-.87 0-1.37-.2-1.57-.86h-1.53c.22 1.25 1.15 2.08 3.05 2.08 1.74 0 2.74-.83 2.74-1.99 0-.82-.58-1.43-1.81-1.69l-1.29-.27c-.75-.14-.99-.3-.99-.56 0-.36.36-.58 1.03-.58.72 0 1.25.2 1.4.84h1.52c-.08-1.23-.99-2.06-2.82-2.06M9.45 16.26c1.01 0 1.82.81 1.82 1.84s-.81 1.83-1.82 1.83a1.82 1.82 0 01-1.83-1.83c0-1.03.83-1.84 1.83-1.84z"/></svg>

<svg xmlns="http://www.w3.org/2000/svg" width="100%" height="100%" viewBox="-3.36 -3.36 30.72 30.72"><path d="M0 2.75V7.84C0 9.76 1.34 11.03 3.08 11.03C3.93 11.03 4.69 10.7 5.23 10.13V10.89H6.44V2.75H5.22V7.77C5.22 9.06 4.35 9.93 3.22 9.93C2.08 9.93 1.22 9.08 1.22 7.77V2.75H0M7.35 2.75V10.89H8.5V10.14A2.96 2.96 0 0 0 10.63 11.03A3.09 3.09 0 0 0 13.74 7.93A3.09 3.09 0 0 0 10.63 4.83C9.8 4.83 9.06 5.17 8.5 5.71V2.75H7.35M17.26 4.84C15.5 4.84 14.21 6.25 14.21 7.92C14.21 9.69 15.58 11 17.36 11C18.44 11 19.33 10.54 19.92 9.75L19.07 9.12C18.63 9.71 18.05 10 17.36 10C16.36 10 15.56 9.27 15.4 8.31H20.22V7.92C20.22 6.16 18.97 4.84 17.26 4.84M23.45 4.91C22.8 4.91 22.33 5.21 22.04 5.69V4.96H20.87V10.89H22.05V7.5C22.05 6.6 22.61 6 23.37 6H23.86V4.91H23.45M17.23 5.86C18.11 5.86 18.84 6.47 19.04 7.38H15.42C15.63 6.47 16.36 5.86 17.23 5.86M10.55 5.88C11.66 5.88 12.58 6.78 12.58 7.93C12.58 9.07 11.66 10 10.55 10A2.04 2.04 0 0 1 8.5 7.93C8.5 6.78 9.42 5.88 10.55 5.88M0 12.96V21.1H5.72V19.71H1.55V17.69H5.61V16.34H1.55V14.35H5.72V12.96H0M14.56 13.38V15.09H13.4V16.45H14.56V19.65C14.56 20.46 15.13 21.1 16.16 21.1H17.8V19.74H16.66C16.31 19.74 16.09 19.58 16.09 19.26V16.45H17.8V15.09H16.09V13.38H14.56M9.32 14.94C7.53 14.94 6.12 16.34 6.12 18.1C6.12 19.85 7.53 21.25 9.32 21.25C10.04 21.25 10.71 21 11.24 20.56V21.1H12.76V15.09H11.24V15.63A2.96 2.96 0 0 0 9.32 14.94M21.04 14.94C19.45 14.94 18.34 15.59 18.34 16.86C18.34 17.73 18.95 18.3 20.27 18.58L21.72 18.92C22.29 19.03 22.44 19.18 22.44 19.42C22.44 19.79 22 20.03 21.31 20.03C20.44 20.03 19.94 19.83 19.74 19.17H18.21C18.43 20.42 19.36 21.25 21.26 21.25C23 21.25 24 20.42 24 19.26C24 18.44 23.42 17.83 22.19 17.57L20.9 17.3C20.15 17.16 19.91 17 19.91 16.74C19.91 16.38 20.27 16.16 20.94 16.16C21.66 16.16 22.19 16.36 22.34 17H23.86C23.78 15.77 22.87 14.94 21.04 14.94M9.45 16.26C10.46 16.26 11.27 17.07 11.27 18.1S10.46 19.93 9.45 19.93A1.82 1.82 0 0 1 7.62 18.1C7.62 17.07 8.45 16.26 9.45 16.26Z"/></svg>
